X: 31
T: Missa La Martinella / Credo
N: Derived from Mar1009c-Missa_La_Martinella-Credo.krn
C: Johannes Martini
%%abc-version 2.0
%%abcx-abcm2ps-target-version 5.9.1 (29 Sep 2008)
%%abc-creator hum2abc beta
%%abcx-conversion-date 2019/02/17 07:19:41
%%abc-edited-by Jesse Rodin
%%abc-edited-by Chris Gage 10-16-2014
%%abcx-initial-encoding-date 2014/10/25/
%%humdrum-veritas 1624467191
%%humdrum-veritas-data 3810767604
%%linebreak <none>
%%barnumbers 0
L: 1/4
M: 4/2
Q: 1/2=120
%%staves [1 2 3 4]
V: 1 clef=treble
V: 2 clef=treble-8
V: 3 clef=treble-8
V: 4 clef=bass
K: F
[V:1] z8 | 
[V:2] z8 | 
[V:3] z8 | 
[V:4] G,8 | 
[V:1] z8 | 
[V:2] z8 | 
[V:3] z8 | 
[V:4] F,4G,4 | 
[V:1] G8 | 
[V:2] z8 | 
[V:3] z8 | 
[V:4] B,8 | 
[V:1] F4G4 | 
[V:2] z8 | 
[V:3] z8 | 
[V:4] A,4G,4- | 
[V:1] B8 | 
[V:2] z8 | 
[V:3] z8 | 
[V:4] G,2F,E,D,2G,2- | 
[V:1] A4G4- | 
[V:2] z8 | 
[V:3] z8 | 
[V:4] G,2F,2G,F,E,D, | 
[V:1] G2FED4 | 
[V:2] z4z2G2- | 
[V:3] z8 | 
[V:4] C,2D,3C,B,,2 | 
[V:1] z8 | 
[V:2] G2^F2G2B2- | 
[V:3] z8 | 
[V:4] A,,4G,,2G,,2- | 
[V:1] z8 | 
[V:2] B2AGF2A2 | 
[V:3] z8 | 
[V:4] G,,A,,B,,C,D,2F,2 | 
[V:1] D3EF2G2 | 
[V:2] B2dcB2z2 | 
[V:3] z8 | 
[V:4] G,2B,2A,G,G,2- | 
[V:1] A2c2B2d2- | 
[V:2] A4G4 | 
[V:3] z8 | 
[V:4] G,2^F,2G,2B,2- | 
[V:1] d2cBA2c2- | 
[V:2] z8 | 
[V:3] z8 | 
[V:4] B,2A,G,F,4 | 
[V:1] cBA2G2B2 | 
[V:2] z8 | 
[V:3] z8 | 
[V:4] A,4B,2D2- | 
[V:1] AGG3^F/E/F2 | 
[V:2] z8 | 
[V:3] z8 | 
[V:4] DCB,2A,4 | 
[V:1] G2B3cd2 | 
[V:2] z4B4 | 
[V:3] z8 | 
[V:4] G,2G,,3A,,B,,C, | 
[V:1] c2B3AG2 | 
[V:2] c2d4e2 | 
[V:3] z8 | 
[V:4] A,,2G,,2B,,2C,2 | 
[V:1] F2B4A2 | 
[V:2] d2B2c4 | 
[V:3] z8 | 
[V:4] D,2G,2F,4 | 
[V:1] B2F3GA2 | 
[V:2] B4F4 | 
[V:3] z8 | 
[V:4] B,,2D,3C,A,,2 | 
[V:1] B2A3GG2- | 
[V:2] G2F2B2c2 | 
[V:3] z8 | 
[V:4] G,,2D,2_E,2C,2 | 
[V:1] G2^F2G4- | 
[V:2] A4G4 | 
[V:3] z8 | 
[V:4] D,4G,,4 | 
[V:1] G2D4C2 | 
[V:2] G2B4A2 | 
[V:3] z8 | 
[V:4] z2G,,2B,,2C,2 | 
[V:1] B,2A,G,A,4 | 
[V:2] G4F2c2- | 
[V:3] z8 | 
[V:4] _E,4D,2C,2 | 
[V:1] A6A2 | 
[V:2] cBA3GFE | 
[V:3] z8 | 
[V:4] F,3E,C,2D,2- | 
[V:1] A4B4 | 
[V:2] F4G2B2 | 
[V:3] z8 | 
[V:4] D,C,B,,A,,G,,2G,2 | 
[V:1] A4A2G2 | 
[V:2] c2d2f2e2 | 
[V:3] A8- | 
[V:4] F,2D,3B,,C,2 | 
[V:1] F4E2A2- | 
[V:2] d4c2f2 | 
[V:3] A8 | 
[V:4] D,4z2F,2 | 
[V:1] A2G2G3F | 
[V:2] d3cd2_e2 | 
[V:3] B8 | 
[V:4] G,6_E,2 | 
[V:1] A2F3DE2- | 
[V:2] c2d2D2C2 | 
[V:3] A8- | 
[V:4] F,2D,3C,A,,2 | 
[V:1] EDD4^C2 | 
[V:2] F4E4 | 
[V:3] A4G4 | 
[V:4] D,6G,2 | 
[V:1] D8 | 
[V:2] D8 | 
[V:3] F8 | 
[V:4] A,2D,2A,3B, | 
[V:1] z8 | 
[V:2] C4DEFG | 
[V:3] E4A4- | 
[V:4] CB,A,G,F,3E, | 
[V:1] A3BcBAG | 
[V:2] ABcd2c/B/c2 | 
[V:3] A4G4 | 
[V:4] D,C,F,3E,/D,/E,2 | 
[V:1] F3ED2CF- | 
[V:2] d3efde/d/c/B/ | 
[V:3] A8- | 
[V:4] D,3C,D,2A,,2 | 
[V:1] FE/D/E2DEFG | 
[V:2] Ad2^cd4- | 
[V:3] A8 | 
[V:4] z4D,3E, | 
[V:1] ABcd2^c/=B/c2 | 
[V:2] d4e4 | 
[V:3] z8 | 
[V:4] F,G,A,B,2A,/G,/A,2 | 
[V:1] d2D3EFG | 
[V:2] d4z4 | 
[V:3] z8 | 
[V:4] D,2B,,3C,D,E, | 
[V:1] AB2A/G/A2D2- | 
[V:2] D3EFGAB- | 
[V:3] z8 | 
[V:4] F,3E,D,2B,,2 | 
[V:1] D2C2D2B,2- | 
[V:2] BA/G/A2D2z2 | 
[V:3] z8 | 
[V:4] D,2A,,2D,4- | 
[V:1] B,CDEF3G | 
[V:2] B3cdef2- | 
[V:3] D8 | 
[V:4] D,8 | 
[V:1] A4B2A2- | 
[V:2] fec2d2c2- | 
[V:3] F6E2 | 
[V:4] F,,4B,,2C,2 | 
[V:1] AGF2E4 | 
[V:2] cAB2c4 | 
[V:3] F4G4 | 
[V:4] D,4C,4 | 
[V:1] D4C4- | 
[V:2] F4F4- | 
[V:3] B4A4- | 
[V:4] B,,4F,,4 | 
[V:1] C2B,A,B,4 | 
[V:2] F2D2D4 | 
[V:3] A2G2G4- | 
[V:4] F,,2G,,6 | 
[V:1] B2AGA2c2 | 
[V:2] z8 | 
[V:3] G4^F4 | 
[V:4] B,,2C,2A,,4 | 
[V:1] B2G3FED | 
[V:2] d3dd2c2 | 
[V:3] G8 | 
[V:4] G,,3A,,B,,2C,2 | 
[V:1] D8 | 
[V:2] B3AG2F2 | 
[V:3] z8 | 
[V:4] G,,3A,,B,,C,D,2 | 
[V:1] d3dd2c2 | 
[V:2] GAB4A2 | 
[V:3] z8 | 
[V:4] G,,4z2F,2 | 
[V:1] B3AG2F2 | 
[V:2] B2d2e2f2- | 
[V:3] z8 | 
[V:4] G,3F,E,2D,2 | 
[V:1] GAB4A2 | 
[V:2] fed2c4 | 
[V:3] z8 | 
[V:4] B,,4F,4 | 
[V:1] B6AG | 
[V:2] B8 | 
[V:3] d8- | 
[V:4] B,,8 | 
[V:1] F4A4 | 
[V:2] A8 | 
[V:3] d4c4 | 
[V:4] D,4F,4 | 
[V:1] B2G3FG2 | 
[V:2] d8- | 
[V:3] B8 | 
[V:4] G,8 | 
[V:1] AG^FEF4 | 
[V:2] d8 | 
[V:3] A8 | 
[V:4] D,8 | 
[V:1] G8 | 
[V:2] B6c2 | 
[V:3] G8 | 
[V:4] _E,8 | 
[V:1] F4E4- | 
[V:2] d4GFED | 
[V:3] A4c4- | 
[V:4] D,4C,4- | 
[V:1] E2F2G4 | 
[V:2] C2F4E2 | 
[V:3] c4B4 | 
[V:4] C,2B,,A,,G,,4 | 
[V:1] A8 | 
[V:2] F4z2A2 | 
[V:3] c8 | 
[V:4] F,,6F,2 | 
[V:1] z4z2A2 | 
[V:2] B2d3c/B/c2 | 
[V:3] z8 | 
[V:4] G,4F,4 | 
[V:1] B2d3c/B/c2 | 
[V:2] G2B3A/G/A2 | 
[V:3] z8 | 
[V:4] _E,2D,2F,4 | 
[V:1] G2B3A/G/A2 | 
[V:2] B2G3F/E/F2 | 
[V:3] z8 | 
[V:4] _E,4D,4 | 
[V:1] BAG4F2 | 
[V:2] G2B2A3B | 
[V:3] z8 | 
[V:4] G,,4D,4 | 
[V:1] G2E4E2 | 
[V:2] c6c2 | 
[V:3] G8 | 
[V:4] C,6C,2 | 
[V:1] E2E2D3D | 
[V:2] c4F4- | 
[V:3] G4B4- | 
[V:4] C,4B,,4- | 
[V:1] D2B,2C2A,2 | 
[V:2] F2F2F4 | 
[V:3] B4A4 | 
[V:4] B,,4F,,4 | 
[V:1] B,CD4^C2 | 
[V:2] D4z2A2 | 
[V:3] G4F2E2 | 
[V:4] G,,4A,,4 | 
[V:1] D4z2A2 | 
[V:2] B2GB2A/G/F2 | 
[V:3] D8 | 
[V:4] z2B,,3C,D,2 | 
[V:1] B2GB2A/G/F2 | 
[V:2] G4z2d2 | 
[V:3] z8 | 
[V:4] G,,2G,3F,D,2 | 
[V:1] G2EG2F/E/DF- | 
[V:2] _e2c_e2d/c/Bd- | 
[V:3] z4G4 | 
[V:4] C,4z4 | 
[V:1] FE/D/E2D4 | 
[V:2] dc/B/c2d2G2 | 
[V:3] A4B4 | 
[V:4] z4G,4 | 
[V:1] G8 | 
[V:2] B3AG2F2 | 
[V:3] G4B4 | 
[V:4] E,6D,2 | 
[V:1] A4B4- | 
[V:2] E3DF4 | 
[V:3] c4d4 | 
[V:4] C,4B,,4 | 
[V:1] B2A2G4- | 
[V:2] G4d4- | 
[V:3] B8 | 
[V:4] G,,8 | 
[V:1] G2^F2F3E | 
[V:2] d4d4 | 
[V:3] A8 | 
[V:4] D,8 | 
[V:1] G8 ||  
[V:2] d8 ||  
[V:3] G8 ||  
[V:4] G,,8 ||  
[V:1]  [K:F] [K:clef=treble][M:2/1]D8 | 
[V:2]  [K:F] [K:clef=treble-8][M:2/1]z8 | 
[V:3]  [K:F] [K:clef=treble-8][M:2/1]z8 | 
[V:4]  [K:F] [K:clef=bass][M:2/1]z8 | 
[V:1] E4E4 | 
[V:2] z8 | 
[V:3] z8 | 
[V:4] z8 | 
[V:1] F4F4 | 
[V:2] z8 | 
[V:3] z8 | 
[V:4] z8 | 
[V:1] G4D2G2- | 
[V:2] G8 | 
[V:3] z8 | 
[V:4] z8 | 
[V:1] GFEDE4 | 
[V:2] A4A4 | 
[V:3] z8 | 
[V:4] z8 | 
[V:1] D2G3ABc | 
[V:2] B4B4 | 
[V:3] z8 | 
[V:4] z8 | 
[V:1] AGc2B2A2- | 
[V:2] c4G2c2- | 
[V:3] z8 | 
[V:4] z8 | 
[V:1] AGG4^F2 | 
[V:2] cBAGA4 | 
[V:3] z8 | 
[V:4] z2G,,2D,4 | 
[V:1] G4z4 | 
[V:2] z2G2A2B2 | 
[V:3] z8 | 
[V:4] B,,2C,4D,2 | 
[V:1] z8 | 
[V:2] c2A2B3c | 
[V:3] z8 | 
[V:4] E,2F,2D,2G,2- | 
[V:1] z2D2E2F2 | 
[V:2] def3ed2- | 
[V:3] z8 | 
[V:4] G,F,D,2C,2D,2 | 
[V:1] G2E2F3G | 
[V:2] d2^c2d4 | 
[V:3] z8 | 
[V:4] E,4D,4- | 
[V:1] ABc3BA2- | 
[V:2] d2e4f2 | 
[V:3] A8 | 
[V:4] D,2C,B,,A,,2F,,2 | 
[V:1] A2G2A4 | 
[V:2] d4e2f2- | 
[V:3] B4A4- | 
[V:4] G,,2B,,2C,2D,2- | 
[V:1] z8 | 
[V:2] f2e2d4 | 
[V:3] A2G2F4 | 
[V:4] D,B,,C,2D,3C, | 
[V:1] z8 | 
[V:2] c4z4 | 
[V:3] E2A4G2 | 
[V:4] A,,2C,2B,,4 | 
[V:1] A8- | 
[V:2] c3Bc2d2 | 
[V:3] A8 | 
[V:4] F,3G,A,2D,2- | 
[V:1] A8 | 
[V:2] f2edc2d2- | 
[V:3] z8 | 
[V:4] D,2C,2A,,2D,2 | 
[V:1] B8 | 
[V:2] dcBAG4 | 
[V:3] z8 | 
[V:4] G,,8 | 
[V:1] A8 | 
[V:2] z2F2A3G | 
[V:3] D4F3E | 
[V:4] z8 | 
[V:1] D8 | 
[V:2] A2Bcd3c | 
[V:3] F2G2B2A2 | 
[V:4] D,8- | 
[V:1] z8 | 
[V:2] BAB2A4 | 
[V:3] G2G4^F2 | 
[V:4] D,8 | 
[V:1] z4G4- | 
[V:2] G8 | 
[V:3] G4z4 | 
[V:4] _E,8 | 
[V:1] G2^FEF4 | 
[V:2] A8 | 
[V:3] z8 | 
[V:4] D,8 | 
[V:1] G2B4AG | 
[V:2] z2G3FED | 
[V:3] d6c2 | 
[V:4] G,,8 | 
[V:1] G2d3cA2 | 
[V:2] G4D4 | 
[V:3] B4A4 | 
[V:4] z2G,4F,2 | 
[V:1] B2G4F2 | 
[V:2] z2d4c2 | 
[V:3] G4A2c2- | 
[V:4] G,2B,2A,4 | 
[V:1] G8 | 
[V:2] d4e4 | 
[V:3] c2=B2c4 | 
[V:4] G,4C,4 | 
[V:1] F8- | 
[V:2] d3cA2B2- | 
[V:3] z8 | 
[V:4] D,3E,F,2B,,2- | 
[V:1] F8 | 
[V:2] B2AGA4 | 
[V:3] z8 | 
[V:4] B,,C,D,_E,D,4 | 
[V:1] G4z4 | 
[V:2] G2_E3FG2 | 
[V:3] G4G2B2- | 
[V:4] z2B,3A,G,2- | 
[V:1] z4z2B2- | 
[V:2] D4d4 | 
[V:3] B2A2GFE2 | 
[V:4] G,2F,2G,2G,,2- | 
[V:1] BAG4F2 | 
[V:2] z2G2A2B2 | 
[V:3] D4z4 | 
[V:4] G,,A,,B,,2C,2D,2 | 
[V:1] G4z4 | 
[V:2] G2B2c2d2 | 
[V:3] z2G2A2B2 | 
[V:4] G,,4z4 | 
[V:1] z2G2A2B2 | 
[V:2] B4A2G2- | 
[V:3] G2B2c2d2 | 
[V:4] z8 | 
[V:1] G2B2c2d2 | 
[V:2] GDG2F2D2 | 
[V:3] B4A4 | 
[V:4] z2G,2A,2B,2 | 
[V:1] B4A2A2- | 
[V:2] _E2G2F4 | 
[V:3] z8 | 
[V:4] G,2B,2C2D2 | 
[V:1] A2G2A4 | 
[V:2] G4D4 | 
[V:3] z8 | 
[V:4] B,4A,4 | 
[V:1] z8 | 
[V:2] z2d3cA2 | 
[V:3] z8 | 
[V:4] D,4F,4 | 
[V:1] z8 | 
[V:2] G2c2F2B2- | 
[V:3] z8 | 
[V:4] E,4D,4 | 
[V:1] z8 | 
[V:2] B2AGA4 | 
[V:3] z8 | 
[V:4] C,8 | 
[V:1] z2D3CA,2 | 
[V:2] d4f4 | 
[V:3] z8 | 
[V:4] B,,6F,,2 | 
[V:1] G,2C2F,2B,2- | 
[V:2] e4d4 | 
[V:3] z8 | 
[V:4] C,4D,4 | 
[V:1] B,2A,G,A,4 | 
[V:2] c8 | 
[V:3] z8 | 
[V:4] E,4F,4 | 
[V:1] D4F4 | 
[V:2] z2B3AF2 | 
[V:3] z8 | 
[V:4] B,,4D,4 | 
[V:1] E4D4 | 
[V:2] G2A2D2G2- | 
[V:3] z8 | 
[V:4] C,4B,,4 | 
[V:1] A8 | 
[V:2] G2^FE^F4 | 
[V:3] z8 | 
[V:4] A,,8 | 
[V:1] B4A4 | 
[V:2] G2B2c2d2 | 
[V:3] z8 | 
[V:4] G,,2G,2F,2D,2- | 
[V:1] F2E4A2- | 
[V:2] A3Bc2d2- | 
[V:3] A8 | 
[V:4] D,2C,2E,2F,2 | 
[V:1] A2G2A4 | 
[V:2] d2e2f3e | 
[V:3] B4A4- | 
[V:4] G,4D,2F,2- | 
[V:1] z8 | 
[V:2] c3Bd4 | 
[V:3] A2G2F4 | 
[V:4] F,2E,2D,3C, | 
[V:1] z4D4 | 
[V:2] z4z2B2 | 
[V:3] E2A4G2 | 
[V:4] A,,2C,2B,,4 | 
[V:1] F3EF2G2 | 
[V:2] c2d4_e2 | 
[V:3] A8 | 
[V:4] A,,2D,4C,2 | 
[V:1] B2A3GG2- | 
[V:2] d2c3BAG | 
[V:3] z8 | 
[V:4] B,,2C,2D,2_E,2 | 
[V:1] G2^F2G2B2 | 
[V:2] A4G4 | 
[V:3] z8 | 
[V:4] D,4G,,4 | 
[V:1] A4D4 | 
[V:2] F3GA2B2- | 
[V:3] D4F3E | 
[V:4] z2D,4B,,2- | 
[V:1] d6c2 | 
[V:2] Bcd3Bc2 | 
[V:3] F2G2B2A2 | 
[V:4] B,,2G,,4A,,2 | 
[V:1] B4A4 | 
[V:2] d4z2d2- | 
[V:3] G2G4^F2 | 
[V:4] B,,2G,,2D,4 | 
[V:1] G4A2c2- | 
[V:2] d2B2c4 | 
[V:3] G4z4 | 
[V:4] G,,2G,2F,2A,2 | 
[V:1] c2B2c2A2 | 
[V:2] d4c4 | 
[V:3] z8 | 
[V:4] G,4C,2F,2 | 
[V:1] B3AF4 | 
[V:2] z8 | 
[V:3] d6c2 | 
[V:4] G,2B,3A,A,2- | 
[V:1] G4A4- | 
[V:2] d6c2 | 
[V:3] B4A4 | 
[V:4] A,G,G,4F,2 | 
[V:1] A2G4^F2 | 
[V:2] B4A4 | 
[V:3] G4A2c2- | 
[V:4] G,4z4 | 
[V:1] G4z4 | 
[V:2] G4A2c2- | 
[V:3] c2B2c4 | 
[V:4] z2G,2F,2E,2 | 
[V:1] z4G4 | 
[V:2] c2=B2c4 | 
[V:3] z8 | 
[V:4] D,4C,4- | 
[V:1] G2B4A2 | 
[V:2] e4d4 | 
[V:3] z8 | 
[V:4] C,2B,,A,,G,,4 | 
[V:1] G2FED4 | 
[V:2] B6G2 | 
[V:3] G4G2B2- | 
[V:4] z4z2G,2- | 
[V:1] G2A2B2G2 | 
[V:2] B2c2Bcde | 
[V:3] B2A2GFE2 | 
[V:4] G,2F,2G,2B,2- | 
[V:1] B2c2d2B2- | 
[V:2] f4d4 | 
[V:3] D4z4 | 
[V:4] B,2A,2B,2G,2- | 
[V:1] BAG2F2G2- | 
[V:2] B2c2d4- | 
[V:3] z2G2A2B2 | 
[V:4] G,F,E,2D,2G,,2 | 
[V:1] GFG3AB2- | 
[V:2] d2e2f4 | 
[V:3] G2B2c2d2 | 
[V:4] G,4F,2D,2 | 
[V:1] BAG4^F2 | 
[V:2] d8 | 
[V:3] B4A4 | 
[V:4] G,4D,4 | 
[V:1] G4z4 | 
[V:2] d4z4 | 
[V:3] G4z4 | 
[V:4] G,,4z4 | 
[V:1] !fermata!B8 | 
[V:2] !fermata!d8 | 
[V:3] !fermata!G8 | 
[V:4] !fermata!G,,8 | 
[V:1] !fermata!A8 | 
[V:2] !fermata!d8 | 
[V:3] !fermata!F8 | 
[V:4] !fermata!D,8 | 
[V:1] !fermata!G8 | 
[V:2] !fermata!B8 | 
[V:3] !fermata!G8 | 
[V:4] !fermata!_E,8 | 
[V:1] !fermata!F8 | 
[V:2] !fermata!d8 | 
[V:3] !fermata!B8 | 
[V:4] !fermata!D,8 | 
[V:1] !fermata!E8 | 
[V:2] !fermata!G8 | 
[V:3] !fermata!c8 | 
[V:4] !fermata!C,8 | 
[V:1] D8 ||  
[V:2] G8 ||  
[V:3] B8 ||  
[V:4] G,,8 ||  
[V:1]  [K:F] [K:clef=treble][M:2/1]z8 | 
[V:2]  [K:F] [K:clef=treble-8][M:2/1]D4F4- | 
[V:3]  [K:F] [K:clef=treble-8][M:2/1]z8 | 
[V:4]  [K:F] [K:clef=bass][M:2/1]z8 | 
[V:1] z8 | 
[V:2] F2G2A4 | 
[V:3] z8 | 
[V:4] D,4F,4 | 
[V:1] z8 | 
[V:2] B4A4 | 
[V:3] z8 | 
[V:4] G,4A,4 | 
[V:1] z8 | 
[V:2] G2d4c2 | 
[V:3] z8 | 
[V:4] B,4A,4 | 
[V:1] z8 | 
[V:2] B2AGF2A2 | 
[V:3] z8 | 
[V:4] G,2D4C2 | 
[V:1] z8 | 
[V:2] G2B2A2c2- | 
[V:3] z8 | 
[V:4] B,2A,G,F,3E, | 
[V:1] z8 | 
[V:2] cBB4A2 | 
[V:3] z8 | 
[V:4] F,2D,2C,4 | 
[V:1] B4B2A2- | 
[V:2] B2d4c2 | 
[V:3] z8 | 
[V:4] B,,6C,2 | 
[V:1] AGG4^F2 | 
[V:2] B2G2A4 | 
[V:3] z8 | 
[V:4] D,2_E,2D,4 | 
[V:1] G4z4 | 
[V:2] B4B2A2- | 
[V:3] z8 | 
[V:4] z2G,,4F,,2 | 
[V:1] z8 | 
[V:2] AGG4^F2 | 
[V:3] z8 | 
[V:4] G,,2B,,2A,,4 | 
[V:1] d3Bc2B2- | 
[V:2] G2B2A2d2- | 
[V:3] z8 | 
[V:4] G,,2G,2F,2G,2 | 
[V:1] BAG2F2B2- | 
[V:2] dBc2d2B2 | 
[V:3] z8 | 
[V:4] E,4D,2G,2 | 
[V:1] B2A2B4 | 
[V:2] c4B2d2 | 
[V:3] z8 | 
[V:4] F,4B,,4 | 
[V:1] z8 | 
[V:2] c2B3AG2 | 
[V:3] z8 | 
[V:4] C,2D,2_E,2D,2 | 
[V:1] z8 | 
[V:2] F2B4A2 | 
[V:3] z8 | 
[V:4] B,,2D,2C,4 | 
[V:1] F4G4 | 
[V:2] B4z4 | 
[V:3] z8 | 
[V:4] B,,2D,4C,B,, | 
[V:1] A3G/A/B2A2- | 
[V:2] F4G2F2 | 
[V:3] z8 | 
[V:4] A,,2D,2G,,2D,2 | 
[V:1] AGG4^F2 | 
[V:2] B2c2A4 | 
[V:3] z8 | 
[V:4] _E,2C,2D,4 | 
[V:1] G4z4 | 
[V:2] G2B4A2- | 
[V:3] z8 | 
[V:4] z2G,4D,2 | 
[V:1] z8 | 
[V:2] A2G4^F2 | 
[V:3] d8- | 
[V:4] F,2G,2D,4 | 
[V:1] G2B4A2- | 
[V:2] G4F4 | 
[V:3] d8 | 
[V:4] G,,4D,3E, | 
[V:1] A2G4^F2 | 
[V:2] A2B2c4 | 
[V:3] c8 | 
[V:4] F,2G,2A,4 | 
[V:1] G8 | 
[V:2] d8 | 
[V:3] B8- | 
[V:4] G,8 | 
[V:1] B4B4 | 
[V:2] f4g4 | 
[V:3] B4G4 | 
[V:4] z4_E,4 | 
[V:1] c4c4 | 
[V:2] e4e4 | 
[V:3] A8 | 
[V:4] C,4C,4 | 
[V:1] F4G4 | 
[V:2] d4G4 | 
[V:3] B8- | 
[V:4] B,,4_E,4 | 
[V:1] F2G4FE | 
[V:2] z4G4 | 
[V:3] B8 | 
[V:4] D,2_E,4D,C, | 
[V:1] D4C2D2- | 
[V:2] B4c2B2 | 
[V:3] z8 | 
[V:4] B,,2B,2A,2B,2- | 
[V:1] D2CB,A,4 | 
[V:2] G2ABc3d | 
[V:3] z8 | 
[V:4] B,2A,G,F,4 | 
[V:1] G,4z2G2- | 
[V:2] _e4d4 | 
[V:3] G8- | 
[V:4] z4G,,4 | 
[V:1] G2F2E3D | 
[V:2] D4E4 | 
[V:3] G8 | 
[V:4] B,,4C,4 | 
[V:1] F2G2A4 | 
[V:2] C8 | 
[V:3] F8 | 
[V:4] A,,8 | 
[V:1] B4c4 | 
[V:2] D4E4 | 
[V:3] G8 | 
[V:4] G,,4C,4 | 
[V:1] d2B3AG2- | 
[V:2] F4G4 | 
[V:3] B8 | 
[V:4] B,,4G,,4 | 
[V:1] G2^FEF4 | 
[V:2] z4D4 | 
[V:3] A8 | 
[V:4] D,8 | 
[V:1] G8 | 
[V:2] E4D2G2- | 
[V:3] G8- | 
[V:4] z4G,,4 | 
[V:1] D4E4 | 
[V:2] GAB2G2c2- | 
[V:3] G4E4 | 
[V:4] B,,4C,4 | 
[V:1] C4A,4 | 
[V:2] cBAGF2f2 | 
[V:3] F8 | 
[V:4] A,,8 | 
[V:1] B,2D4C2 | 
[V:2] _e2d2_e4 | 
[V:3] G8 | 
[V:4] G,,4C,4 | 
[V:1] D8 | 
[V:2] d4z2G2- | 
[V:3] B8 | 
[V:4] B,,4G,,4 | 
[V:1] D4z4 | 
[V:2] G2^FE^F4 | 
[V:3] A8 | 
[V:4] D,8 | 
[V:1] z2G4FE | 
[V:2] G2B4AG | 
[V:3] G8 | 
[V:4] _E,8 | 
[V:1] F4G2B2- | 
[V:2] A4B2G2- | 
[V:3] d8- | 
[V:4] D,4G,4 | 
[V:1] B2AGA4 | 
[V:2] G2d2e2f2 | 
[V:3] d4c4 | 
[V:4] B,4A,4 | 
[V:1] z2d4c2 | 
[V:2] gfede4 | 
[V:3] B4A4 | 
[V:4] G,4z4 | 
[V:1] d2G3AB2 | 
[V:2] d8 | 
[V:3] B8 | 
[V:4] G,8 | 
[V:1] c2B3AG2 | 
[V:2] z4G4 | 
[V:3] G8 | 
[V:4] E,8 | 
[V:1] F4D2F2- | 
[V:2] A4F4 | 
[V:3] d8- | 
[V:4] D,8- | 
[V:1] FGA2G2B2 | 
[V:2] f4d4 | 
[V:3] d4B4 | 
[V:4] D,4G,4 | 
[V:1] A2c3BA2- | 
[V:2] f8 | 
[V:3] c8 | 
[V:4] F,8 | 
[V:1] A2GFG4 | 
[V:2] d8- | 
[V:3] B8 | 
[V:4] G,8 | 
[V:1] A4c4- | 
[V:2] d4c4 | 
[V:3] A8- | 
[V:4] D,3C,A,,3B,, | 
[V:1] c2B2A4 | 
[V:2] A4d4- | 
[V:3] A8 | 
[V:4] C,2D,3E,F,2 | 
[V:1] G2G4^F2 | 
[V:2] d4c4 | 
[V:3] z8 | 
[V:4] G,2B,2A,4 | 
[V:1] G2FED2F2- | 
[V:2] d8 | 
[V:3] z8 | 
[V:4] G,4B,2A,2- | 
[V:1] FED4^C2 | 
[V:2] z8 | 
[V:3] z8 | 
[V:4] A,G,F,2E,4 | 
[V:1] D4z4 | 
[V:2] D4F3E | 
[V:3] z8 | 
[V:4] D,2F,4B,,2 | 
[V:1] z8 | 
[V:2] F2G2B2A2 | 
[V:3] z8 | 
[V:4] A,,2G,,2D,4 | 
[V:1] z8 | 
[V:2] G2G4^F2 | 
[V:3] z8 | 
[V:4] C,2B,,2A,,4 | 
[V:1] B8 | 
[V:2] G2B3cd2 | 
[V:3] z8 | 
[V:4] G,,2G,,3A,,B,,2 | 
[V:1] A8 | 
[V:2] e2f3edc | 
[V:3] z8 | 
[V:4] C,2D,3E,F,2 | 
[V:1] G8- | 
[V:2] e2d3cBA | 
[V:3] z8 | 
[V:4] G,2B,3A,G,2- | 
[V:1] G8 | 
[V:2] G2d4^c2 | 
[V:3] z8 | 
[V:4] G,F,E,D,E,4 | 
[V:1] F8- | 
[V:2] d4B4 | 
[V:3] d8 | 
[V:4] D,6E,2 | 
[V:1] F4D4 | 
[V:2] A4B4 | 
[V:3] c4B4- | 
[V:4] F,4G,4 | 
[V:1] F8 | 
[V:2] c8 | 
[V:3] B2G2A4 | 
[V:4] F,8 | 
[V:1] D4G4- | 
[V:2] B4G4 | 
[V:3] B8 | 
[V:4] B,,4_E,4 | 
[V:1] G2^FEF4 | 
[V:2] A8 | 
[V:3] z8 | 
[V:4] D,8 | 
[V:1] G2B4AG | 
[V:2] G2D2E4 | 
[V:3] G8 | 
[V:4] G,,4z4 | 
[V:1] A4G4 | 
[V:2] D4d4- | 
[V:3] F4G4 | 
[V:4] z2A,2B,2G,2- | 
[V:1] z8 | 
[V:2] d2B2c2A2 | 
[V:3] B4A4 | 
[V:4] G,F,G,2A,2F,2 | 
[V:1] z8 | 
[V:2] B3cd2G2 | 
[V:3] G6E2 | 
[V:4] G,2G,,2B,,2C,2 | 
[V:1] z2A2B2G2- | 
[V:2] A2c2B2c2 | 
[V:3] F4G4 | 
[V:4] A,,4G,,2C,2 | 
[V:1] GFG2A2^F2 | 
[V:2] d4z2A2 | 
[V:3] B4A4 | 
[V:4] B,,2G,,2D,4 | 
[V:1] G4z4 | 
[V:2] B2G3FG2 | 
[V:3] G4d4- | 
[V:4] G,,4B,,4 | 
[V:1] z4D4 | 
[V:2] A2F2G2F2- | 
[V:3] d2c2B2A2 | 
[V:4] A,,4G,,2D,2- | 
[V:1] D4C4 | 
[V:2] F2D2E2F2 | 
[V:3] B4G4 | 
[V:4] D,2B,,2C,3B,, | 
[V:1] B,4z2B2- | 
[V:2] GABcd2e2 | 
[V:3] d6B2 | 
[V:4] G,,4G,4 | 
[V:1] B2A2B2G2 | 
[V:2] f4e4 | 
[V:3] c4B4 | 
[V:4] F,4G,4 | 
[V:1] AG^FEF4 | 
[V:2] d8 | 
[V:3] A8 | 
[V:4] D,8 | 
[V:1] G8- | 
[V:2] G6c2- | 
[V:3] [M:2/1]z8 | 
[V:4] _E,6C,2 | 
[V:1] G8 | 
[V:2] c2BAc4 | 
[V:3] z8 | 
[V:4] C,8 | 
[V:1] z8 | 
[V:2] B2A2B3c | 
[V:3] z8 | 
[V:4] D,6G,2- | 
[V:1] z8 | 
[V:2] d_ed4cB | 
[V:3] z8 | 
[V:4] G,2F,E,G,4 | 
[V:1] z8 | 
[V:2] A2G2A2c2- | 
[V:3] z8 | 
[V:4] F,2E,2F,3G, | 
[V:1] z4z2D2 | 
[V:2] cdefe2d2- | 
[V:3] z8 | 
[V:4] A,B,A,4G,F, | 
[V:1] E2G2F2B2- | 
[V:2] d2^c2d4 | 
[V:3] z8 | 
[V:4] E,4D,2G,2- | 
[V:1] BAG3FE2 | 
[V:2] G6A2 | 
[V:3] z8 | 
[V:4] G,F,E,3D,C,2 | 
[V:1] D2G2E2A2- | 
[V:2] B4c4 | 
[V:3] z8 | 
[V:4] B,,2_E,2C,2F,2- | 
[V:1] AG^FEF4 | 
[V:2] A8 | 
[V:3] z8 | 
[V:4] F,E,D,C,D,4 | 
[V:1] G6F2 | 
[V:2] G8 | 
[V:3] z8 | 
[V:4] G,,4G,4- | 
[V:1] D3EF2E2- | 
[V:2] z8 | 
[V:3] z8 | 
[V:4] G,2F,2D,2C,2 | 
[V:1] EDD4^C2 | 
[V:2] z8 | 
[V:3] z8 | 
[V:4] F,2G,2E,4 | 
[V:1] D4z2D2- | 
[V:2] z4D4 | 
[V:3] z8 | 
[V:4] D,4F,4 | 
[V:1] D2E2F2D2 | 
[V:2] G4A2B2 | 
[V:3] z8 | 
[V:4] G,2E,2D,4 | 
[V:1] G4E2A2 | 
[V:2] G2c4A2 | 
[V:3] z8 | 
[V:4] E,2C,4F,2- | 
[V:1] F2B4G2 | 
[V:2] d2B2_e4 | 
[V:3] z8 | 
[V:4] F,2G,2_E,4 | 
[V:1] A2B2c2F2 | 
[V:2] c2d2e2f2 | 
[V:3] z8 | 
[V:4] F,2B,,2z2B,2- | 
[V:1] G2A2B2A2- | 
[V:2] B2c2d2c2- | 
[V:3] z8 | 
[V:4] B,2A,2G,2A,2 | 
[V:1] AGG4^F2 | 
[V:2] c2B2A4 | 
[V:3] z8 | 
[V:4] F,2G,2D,4 | 
[V:1] [M:3/1]G8G4 | 
[V:2] [M:3/1]G12 | 
[V:3] [M:3/1]d12- | 
[V:4] [M:3/1]G,,8B,,4- | 
[V:1] F4E8 | 
[V:2] z4z4C4 | 
[V:3] d4c8 | 
[V:4] B,,4C,8 | 
[V:1] D4B,4D4- | 
[V:2] D4E4D4 | 
[V:3] B12 | 
[V:4] G,,8B,,4- | 
[V:1] D4z4C4 | 
[V:2] G8^F4 | 
[V:3] G4A8 | 
[V:4] B,,4A,,8 | 
[V:1] D4E4D4 | 
[V:2] G12- | 
[V:3] B12- | 
[V:4] G,,12 | 
[V:1] G8^F4 | 
[V:2] G4d8 | 
[V:3] B4A8 | 
[V:4] z12 | 
[V:1] G4E4D4 | 
[V:2] B6G2A2B2 | 
[V:3] z12 | 
[V:4] G,8F,4 | 
[V:1] E4F6D2 | 
[V:2] c8B4 | 
[V:3] z12 | 
[V:4] E,4D,8 | 
[V:1] E4D6C2 | 
[V:2] c4d4B4 | 
[V:3] G12- | 
[V:4] C,4B,,4G,,4- | 
[V:1] B,4A,8 | 
[V:2] d6c2A4 | 
[V:3] G4F8 | 
[V:4] G,,4D,8 | 
[V:1] G,8z4 | 
[V:2] B4G6F2 | 
[V:3] G8B4- | 
[V:4] G,,12- | 
[V:1] G4A4c4 | 
[V:2] D2E2F6E2 | 
[V:3] B4A8 | 
[V:4] G,,4F,,8 | 
[V:1] B4c4d4 | 
[V:2] D4E4D4 | 
[V:3] G12 | 
[V:4] G,,4C,4B,,4 | 
[V:1] c6B2A4 | 
[V:2] G4A8 | 
[V:3] E4F8 | 
[V:4] C,4A,,4D,4 | 
[V:1] G4B6A2 | 
[V:2] B12 | 
[V:3] G8B4- | 
[V:4] G,,4G,6F,2 | 
[V:1] G8^F4 | 
[V:2] d12 | 
[V:3] B4A8 | 
[V:4] G,4D,8 | 
[V:1] G8F4 | 
[V:2] B4G4A4 | 
[V:3] G8d4- | 
[V:4] _E,8D,4 | 
[V:1] D4F6E2 | 
[V:2] B8A4 | 
[V:3] d4c8 | 
[V:4] B,,8F,,4 | 
[V:1] D4C4B,4 | 
[V:2] F4E4G4 | 
[V:3] B4A4B4- | 
[V:4] B,,4C,4G,,4 | 
[V:1] D8E4 | 
[V:2] B6A2G4 | 
[V:3] B4G8 | 
[V:4] G,8E,4 | 
[V:1] F8G4- | 
[V:2] A8G4 | 
[V:3] d12 | 
[V:4] D,8G,,4 | 
[V:1] G4A8 | 
[V:2] G6E2^F4 | 
[V:3] B4c8 | 
[V:4] B,,4A,,8 | 
[V:1] D8E4 | 
[V:2] G8z4 | 
[V:3] B8A4- | 
[V:4] G,,4B,,4C,4 | 
[V:1] F6E2F4 | 
[V:2] d6c2A4 | 
[V:3] A12 | 
[V:4] D,6A,,2D,4 | 
[V:1] G4D4F4- | 
[V:2] G4B6A2 | 
[V:3] z12 | 
[V:4] G,,4G,4D,4 | 
[V:1] F4E8 | 
[V:2] d8^c4 | 
[V:3] z12 | 
[V:4] F,4G,4A,4 | 
[V:1] D4z4G4 | 
[V:2] d2c2B2A2G4 | 
[V:3] z12 | 
[V:4] D,8E,4 | 
[V:1] A4B4G4 | 
[V:2] F4D4E2F2 | 
[V:3] z12 | 
[V:4] D,4B,,4C,4 | 
[V:1] B4c4d4 | 
[V:2] G4A4B4 | 
[V:3] z12 | 
[V:4] G,,4z4z4 | 
[V:1] B8A4 | 
[V:2] G4B4c4 | 
[V:3] z12 | 
[V:4] G,8F,4- | 
[V:1] A8G4 | 
[V:2] d4B8 | 
[V:3] z12 | 
[V:4] F,4G,8 | 
[V:1] A12- | 
[V:2] A8z4 | 
[V:3] z12 | 
[V:4] D,6E,2F,4 | 
[V:1] A12 | 
[V:2] d8c4 | 
[V:3] z12 | 
[V:4] D,4F,6E,2 | 
[V:1] z12 | 
[V:2] B6G2A4 | 
[V:3] z12 | 
[V:4] D,4C,8 | 
[V:1] z12 | 
[V:2] B4F4G4 | 
[V:3] d8c4 | 
[V:4] B,,4D,4_E,4 | 
[V:1] z12 | 
[V:2] F8E4 | 
[V:3] B6G2A4 | 
[V:4] D,4C,8 | 
[V:1] d8c4 | 
[V:2] F4f6e2 | 
[V:3] B12 | 
[V:4] B,,8z4 | 
[V:1] B6AGA4 | 
[V:2] d8e4 | 
[V:3] z12 | 
[V:4] G,4B,4C4 | 
[V:1] B8z4 | 
[V:2] d6B2c4 | 
[V:3] G8F4 | 
[V:4] B,6G,2A,4 | 
[V:1] z12 | 
[V:2] B4F6E2 | 
[V:3] G4B4A4 | 
[V:4] G,4D,6C,2 | 
[V:1] z12 | 
[V:2] D8C4 | 
[V:3] G6E2^F4 | 
[V:4] B,,4A,,8 | 
[V:1] G8F4 | 
[V:2] D4G4D4 | 
[V:3] G4B4A4 | 
[V:4] G,,8z4 | 
[V:1] G4B4A4 | 
[V:2] d6e2f4 | 
[V:3] G4d6c2 | 
[V:4] G,8F,4 | 
[V:1] G4d6c2 | 
[V:2] d8g4- | 
[V:3] B2A2B4G4 | 
[V:4] G,8B,4- | 
[V:1] B2A2B4A3G | 
[V:2] g4d4f4 | 
[V:3] d6B2c4 | 
[V:4] B,4G,4F,4 | 
[V:1] G4G4^F4 | 
[V:2] e4d8 | 
[V:3] B4A8 | 
[V:4] G,4D,8 | 
[V:1] G8E4 | 
[V:2] B8c4 | 
[V:3] G12 | 
[V:4] _E,12 | 
[V:1] !fermata!^F12 | 
[V:2] !fermata!d12 | 
[V:3] !fermata!A12 | 
[V:4] !fermata!D,12 | 
[V:1] G12 |]  
[V:2] d12 |]  
[V:3] G12 |]  
[V:4] G,,12 |]  



